X: 227
T:Drumshambo Jig
M:6/8
L:1/8
F:http://blackrosetheband.googlepages.com/ABCTUNES.ABC May 2009
R:Jig
K:Em
"Em"BEF G2A|Bee dBA|BEF G2B|"D"AFD AFD|
"Em"BEF G2A|Bee dBc|"C"BEF G2B|"D"AFD "Em"E3:|
|:"Em"gfe "D"fed|"Em"Bee Bee|gfe "D"fed|"Em"Bed e2f|1 gfe "D"fed|
"Em"~e3 dBA|"C"BEF G2B|"D"AFD "Em"~E3:|2 "(G)"~g3 "D"~a3|
"Em"bge "(D)"dBc|"C"BEF G2B|"D"AFD "Em"E3||

